X:1
B:C Findlater and M Campbell,Scottish Songs, Lomond Books, 2004
T:Ho ro, My Nut-Brown Maiden
M:C     %Meter
L:1/8     %
K:F
C2 |F3 E D2 C2 |F4 C3 C |F3 G B2 A2 | G4 A2 
w:Ho-ro my nut-brown maid-en, Hi-ri my nut-brown maid-en, 
B2 |(A c3) (A c3) |C4 F2 G2 |A3 A B2 G2 | HF6 
w:Ho ro_ ro,_ maid-en! Oh she's the maid for me.
(AB) |c3 d c2 A2 |c4 A2 A2 |c3 d c2 A2 | G6 
w:Her_ eyes so mild-ly beam-ing, Her look so frank and free,
(AB) |c3 c A2 F2 |(C3 D) F2 G2 |A2 A2 B2 G2 | F6  |]
w:In_ wak-ing and in dream--ing is ev-er-more with me 